X: 2141
T: Auchmountain's Bonnie Glen
R: reel
M: 4/4
K: Amajor
a2 =gf e2 a2|c2 ec A2 ce|d2 Bd c2 BA|=G2B2B2 e2|a2 =gf e2 a2|c2 ec A2ce|d3f efga|c2A2A2ed||
c2e2e2cA|d2f2f2ed|c2Aa fedc|B4- B2 ed|c2e2e2cA|d2f2f2a2|d2f2 efga|c2A2A2e2||
a4a3e|cAce a2ce|d2Bdc2BA|=G2B2B2e2|a4a3e|cAce a2ce|d2f2efga|c2A2A2ed||
cAce fecA|cAce fecA|cAce aece|B6e2|a4a3e|cAce a2ce|d2f2efga|c2A2A2z2||

